img/square-js.svg

<svg viewBox="0 0 448 512" xmlns="http://www.w3.org/2000/svg"><path d="m448 96c0-35.3-28.7-64-64-64h-320c-35.3 0-64 28.7-64 64v320c0 35.3 28.7 64 64 64h320c35.3 0 64-28.7 64-64zm-267.1 348.9c-33.7 0-53.2-17.4-63.2-38.5l34.3-20.7c6.6 11.7 12.6 21.6 27.1 21.6 13.8 0 22.6-5.4 22.6-26.5v-143.1h42.1v143.7c0 43.6-25.6 63.5-62.9 63.5zm85.8-43 34.3-19.8c9 14.7 20.8 25.6 41.5 25.6 17.4 0 28.6-8.7 28.6-20.8 0-14.4-11.4-19.5-30.7-28l-10.5-4.5c-30.4-12.9-50.5-29.2-50.5-63.5 0-31.6 24.1-55.6 61.6-55.6 26.8 0 46 9.3 59.8 33.7l-32.8 21c-7.2-12.9-15-18-27.1-18-12.3 0-20.1 7.8-20.1 18 0 12.6 7.8 17.7 25.9 25.6l10.5 4.5c35.8 15.3 55.9 31 55.9 66.2 0 37.8-29.8 58.6-69.7 58.6-39.1 0-64.4-18.6-76.7-43z"/></svg>

<svg xmlns="http://www.w3.org/2000/svg" viewBox="0 0 448 512"><!--!Font Awesome Free 6.5.1 by @fontawesome - https://fontawesome.com License - https://fontawesome.com/license/free Copyright 2024 Fonticons, Inc.--><path d="M448 96c0-35.3-28.7-64-64-64H64C28.7 32 0 60.7 0 96V416c0 35.3 28.7 64 64 64H384c35.3 0 64-28.7 64-64V96zM180.9 444.9c-33.7 0-53.2-17.4-63.2-38.5L152 385.7c6.6 11.7 12.6 21.6 27.1 21.6c13.8 0 22.6-5.4 22.6-26.5V237.7h42.1V381.4c0 43.6-25.6 63.5-62.9 63.5zm85.8-43L301 382.1c9 14.7 20.8 25.6 41.5 25.6c17.4 0 28.6-8.7 28.6-20.8c0-14.4-11.4-19.5-30.7-28l-10.5-4.5c-30.4-12.9-50.5-29.2-50.5-63.5c0-31.6 24.1-55.6 61.6-55.6c26.8 0 46 9.3 59.8 33.7L368 290c-7.2-12.9-15-18-27.1-18c-12.3 0-20.1 7.8-20.1 18c0 12.6 7.8 17.7 25.9 25.6l10.5 4.5c35.8 15.3 55.9 31 55.9 66.2c0 37.8-29.8 58.6-69.7 58.6c-39.1 0-64.4-18.6-76.7-43z"/></svg>
